X: 7125
T: Christmas Lunch
R: jig
M: 6/8
K: Eminor
|:eBe dAd|c3 cBA|B3 BAG|ABA FBd|
eBe dAd|c3 cBA|BEB AGF|E3 E2B:|
c2c cBA|B2B BAG|ABA FGA|BGE BGE|
cdc cBA|BEB BAG|ABA GFD|E2E E2B:|

